SVG-Icons/Socials/twitter-black.svg

<svg width="49" height="40" viewBox="0 0 49 40" fill="none" xmlns="http://www.w3.org/2000/svg">
<path fill-rule="evenodd" clip-rule="evenodd" d="M23.8067 10.6406L23.9108 12.3707L22.1767 12.1589C15.8644 11.3468 10.3499 8.59274 5.66771 3.96733L3.37866 1.67229L2.78905 3.36709C1.54048 7.14509 2.33818 11.1349 4.93938 13.8184C6.32668 15.3013 6.01454 15.5132 3.62144 14.6305C2.78905 14.348 2.06072 14.1362 1.99135 14.2421C1.74858 14.4892 2.58096 17.7023 3.23993 18.9734C4.14168 20.7388 5.97986 22.4689 7.99145 23.4929L9.6909 24.305L7.67931 24.3403C5.73708 24.3403 5.66771 24.3756 5.87581 25.1171C6.56946 27.4121 9.30939 29.8484 12.3615 30.9077L14.5118 31.6491L12.6389 32.779C9.86432 34.4032 6.60415 35.3212 3.34398 35.3918C1.78326 35.4271 0.5 35.5684 0.5 35.6743C0.5 36.0274 4.73128 38.0047 7.19375 38.7814C14.5812 41.0765 23.3559 40.0879 29.9456 36.1686C34.6277 33.3792 39.3099 27.8358 41.4949 22.4689C42.6741 19.609 43.8533 14.3833 43.8533 11.8764C43.8533 10.2522 43.9574 10.0404 45.8996 8.09842C47.0441 6.96855 48.1193 5.73276 48.3274 5.37967C48.6742 4.70881 48.6395 4.70881 46.8707 5.30905C43.9227 6.36831 43.5065 6.22707 44.9632 4.63819C46.0383 3.50832 47.3216 1.46044 47.3216 0.860193C47.3216 0.754267 46.8013 0.93081 46.2117 1.24859C45.5874 1.60167 44.2001 2.1313 43.1597 2.44907L41.2868 3.04931L39.5873 1.88414C38.6509 1.24859 37.333 0.542417 36.6393 0.330566C34.8705 -0.163752 32.1653 -0.0931348 30.5699 0.4718C26.2345 2.06068 23.4946 6.15646 23.8067 10.6406Z" fill="#282E38"/>
</svg>

<svg xmlns="http://www.w3.org/2000/svg" fill="none" viewBox="0 0 49 40"><path fill="#282E38" fill-rule="evenodd" d="m23.807 10.64.104 1.73-1.734-.211c-6.313-.812-11.827-3.566-16.51-8.192L3.38 1.672l-.59 1.695c-1.249 3.778-.45 7.768 2.15 10.451 1.388 1.483 1.076 1.695-1.318.813-.832-.283-1.56-.495-1.63-.389-.242.247.59 3.46 1.249 4.731.902 1.766 2.74 3.496 4.751 4.52l1.7.812-2.012.035c-1.942 0-2.011.036-1.803.777.693 2.295 3.433 4.731 6.485 5.79l2.15.742-1.872 1.13c-2.775 1.624-6.035 2.542-9.295 2.613-1.56.035-2.844.176-2.844.282 0 .353 4.231 2.33 6.694 3.107 7.387 2.296 16.162 1.307 22.752-2.612 4.682-2.79 9.364-8.333 11.549-13.7 1.18-2.86 2.358-8.086 2.358-10.593 0-1.624.104-1.836 2.047-3.778 1.144-1.13 2.22-2.365 2.427-2.718.347-.671.313-.671-1.456-.07-2.948 1.058-3.364.917-1.908-.672 1.075-1.13 2.359-3.178 2.359-3.778 0-.106-.52.07-1.11.389-.625.353-2.012.882-3.052 1.2l-1.873.6-1.7-1.165C38.651 1.25 37.333.542 36.64.331c-1.769-.495-4.474-.424-6.07.14-4.334 1.59-7.074 5.685-6.762 10.17Z" clip-rule="evenodd"/></svg>
